X:292
T: IM GRABE IST RUH
N: B0770
O: Europa, Mitteleuropa, Deutschland
R: Trost - Lied, religioes
M: 2/4
L: 1/8
K: G
D | B2AA | G2z
D | G2GG | B2Bd | d2c2 | B2z
G | e2ee | dcB
d | dcBA | B2z
G | e2ee | dcB
d | dcBA | G2z

